X:1
T:I’m Glad I’m One of Them
T:Isaiah G. Martin, 1906
T:I’m Glad I’m One of Them
T:Public Domain
T:Public Domain
T:Public Domain
C:Isaiah G. Martin, 1906
Z:Public Domain
%%score 1 ( 2 3 )
L:1/8
M:4/4
K:Bb
V:1 treble 
V:2 bass 
V:3 bass 
V:1
 [B,D]>[DF] | [DB]>[DB] [DB]>[DB] [DB]>[DF] [B,D]>[DF] | %2
w: 1.~There are|peo- ple al- most ev- ery- where, Whose|
w: 2.~Though these|peo- ple may not learn- èd be, Nor|
w: 3.~They were|ga- thered in the up- per room, All|
w: 4.~Come, my|bro- ther seek this bless- ing That will|
 [DB]>[DB] [EG]>[EB] [DF]2 [DB]>[Ec][Fd]>[Fd][Fd]>[Fd][Fd]>[Ec][DB]>[Fd] | %3
w: hearts are all a- flame With the fire that fell at Pent- e- cost, Which|
w: boast of world- ly fame, They have all re- ceived their Pent- e- cost Through|
w: pray- ing in His name, They were bap- tized with the Ho- ly Ghost, And|
w: cleanse your heart from sin, That will start the joy bells ring- ing And will|
 [Ec]>[Ec] [Ec][Fd] [Ec]2 [B,D]>[DF] | [DB]>[DB] [DB]>[DB] [DB][DF] [B,D]>[DF] | %5
w: cleansed and made them clean; It is|burn- ing now with- in my heart— All|
w: faith in Je- sus’ name; And are|tell- ing now, both far and wide, His|
w: power for serv- ice came; No- w|what He did for them that day He’ll|
w: keep the soul a- flame; It is|burn- ing now with- in my heart— All|
 [DB]>[DB] [EG]>[EB] [DF]2 [DB]>[Ec] | [Fd]>[Fd] [Fd][Ec] [DF]>[DB] [EA][Ec] | [DB]6 |: %8
w: glo- ry to His name— And I’m|glad that I can say I’m one of|them.|
w: power is yet the same, And I’m|glad that I can say I’m one of|them.|
w: do for you the same, And I’m|glad that I can say I’m one of|them.|
w: glo- ry to His name— And I’m|glad that I can say I’m one of|them.|
"^Refrain" [B,D]>[DF] | [DB]6 [EG]>[GB] | [DF]6 [DB]>[Ec] | %11
w: |||
w: One of|them, one of|them, I am|
w: |||
w: |||
 [Fd]>[Fd] [Fd]>[Ec] [DB][DB] [=EA]>[EB] | [Fc]6 :| [DF]>[DB] [CA][Ec] | [DB]6 |] %15
w: ||||
w: glad that I can say I’m one of|them.|say I’m one of|them.|
w: ||||
w: ||||
V:2
 [B,,F,]>[B,,F,] | [B,,F,]>[B,,F,] [B,,F,]>[B,,F,] [B,,F,]>[B,,F,] [B,,F,]>[B,,F,] | %2
w: ~ ~|~ ~ ~ ~ ~ ~ ~ ~|
 [B,,F,]>[B,,B,] [E,B,]>[G,B,] B,2 [B,,F,]>[B,,F,][B,,B,]>[B,,B,][B,,B,]>[B,,B,][B,,B,]>[B,,F,][B,,F,]>[B,,F,] | %3
w: ~ ~ ~ ~ ~ ~ ~ ~ ~ ~ ~ ~ ~ ~ ~|
 [F,A,]>[F,A,] [F,A,][F,B,] [F,A,]2 [B,,F,]>[B,,F,] | %4
w: ~ ~ ~ ~ ~ ~ ~|
 [B,,F,]>[B,,F,] [B,,F,]>[B,,F,] [B,,F,][B,,F,] [B,,F,]>[B,,F,] | %5
w: ~ ~ ~ ~ ~ ~ ~ ~|
 [B,,F,]>[B,,B,] [E,B,]>[G,B,] B,2 [B,,F,]>[B,,F,] | %6
w: ~ ~ ~ ~ ~ ~ ~|
 [B,,B,]>[B,,B,] [F,B,][F,A,] [F,B,]>[F,B,] [F,C][F,A,] | [B,,F,]6 |: z2 | %9
w: ~ ~ ~ ~ ~ ~ ~ One|of||
 z2 [B,,B,]>[B,,B,] [B,,B,]2 z2 | z2 [B,,B,]>[B,,B,] [B,,B,]2 [B,,F,]>[B,,F,] | %11
w: them, one of|them * * * *|
 [B,,B,]>[B,,B,] [F,B,]>[F,A,] [G,B,][G,B,] [G,C]>[G,C] | [F,A,]6 :| %13
w: ||
 [F,,F,]>[F,,F,] [F,,F,][F,,F,] | [B,,F,]6 |] %15
w: ||
V:3
 x2 | x8 | x4 B,2 x10 | x8 | x8 | x4 B,2 x2 | x8 | x6 |: x2 | x8 | x8 | x8 | x6 :| x4 | x6 |] %15
w: ||~|||~||||||||||

